src/assets/icons/hero.svg

<svg height="27" viewBox="0 0 18 27" width="18" xmlns="http://www.w3.org/2000/svg"><g fill="#f00"><path d="m8.7752 5.3984c1.490727 0 2.6992-1.208473 2.6992-2.6992s-1.208473-2.6992-2.6992-2.6992-2.6992 1.208473-2.6992 2.6992 1.208473 2.6992 2.6992 2.6992z"/><path d="m5.1296 14.9744c-.6074653.2248414-1.28772151.1234368-1.8032-.2688-.3559433-.2715533-.6944766-.5651982-1.0136-.8792l-2.3128 7.4536s1.1872.1344 2.9512.2968z"/><path d="m11.5808 14.756c-.0171342-.053539-.0377104-.1059148-.0616-.1568.364-2.016.7672-4.0544 1.204-6.0816.7672.4872 1.232 1.0304 1.2712 1.5064.056.5992-.5208 1.3888-1.624 2.24-.4130249.310753-.5802753.8513032-.4149192 1.3410117.1653561.4897084.626057.8182232 1.1429192.8149883.2632058.0004374.5191654-.0861951.728-.2464 1.8312-1.4 2.6936-2.8616 2.5648-4.3512-.113378-.96988346-.5846647-1.86253244-1.3216-2.5032-.5452651-.50088025-1.1578568-.92309736-1.82-1.2544-.1074294-.05354253-.2227674-.08946749-.3416-.1064-.1164592-.04246467-.2401623-.06149591-.364-.056h-7.5376c-.12603475-.00371406-.2515825.01721057-.3696.0616-.11155991.01753765-.21942949.05349417-.3192.1064-.66305993.32743892-1.27592215.74795669-1.82 1.2488-.73485575.64158468-1.20408496 1.53411853-1.316 2.5032-.1344 1.4896.728 2.9512 2.5592 4.3512.52661739.3988842 1.27629087.2989277 1.68-.224.39763669-.5280748.29514903-1.2779845-.2296-1.68-1.12-.84-1.68-1.6296-1.624-2.24.0392-.4704.4984-1.0136 1.26-1.5008.4256 1.9936.8232 3.9984 1.1872 5.9808-.02762596.0563999-.05193402.1143653-.0728.1736l-3.3264 10.08c-.12906976.3898555-.09768313.8150492.08723185 1.1817272s.50815412.6446911.89836815.7726728c.15686088.0532435.32155461.079746.4872.0784.6631592.0048058 1.25656337-.4110266 1.4784-1.036l3.1864-9.688 3.2144 9.744c.2086349.6362461.8032222 1.0657959 1.4728 1.0640056.1654237-.0014291.3296808-.0278613.4872-.0784056.390214-.1279817.7134532-.4059948.8983681-.7726728.184915-.366678.2163017-.7918717.0872319-1.1817272zm-1.5008-3.2816-1.2936-.6664-1.2712.6664.2408-1.3944-1.036-1.0192 1.4168-.2072.6384-1.288.6328 1.288 1.4168.2072-1.0136 1.0192z"/><path d="m7.5432 21.9184c.81386667.0448 1.63146667.0784 2.4528.1008l-1.2432-3.7688z"/><path d="m14.2408 14.7056c-.3217924.2464021-.7147289.3819652-1.12.3864-.2517544.0004438-.5010974-.0490441-.7336-.1456l2.2848 7.0056c1.1136476-.0322197 2.2129957-.259671 3.248-.672l-2.52-7.5992c-.3623143.3679134-.7496383.7103303-1.1592 1.0248z"/></g></svg>

<?xml version="1.0" encoding="UTF-8"?>
<svg width="18px" height="27px" viewBox="0 0 18 27" version="1.1" xmlns="http://www.w3.org/2000/svg" xmlns:xlink="http://www.w3.org/1999/xlink">
    <title>noun_Superhero_2227044@1,5x</title>
    <g id="Page-1" stroke="none" stroke-width="1" fill="none" fill-rule="evenodd">
        <g id="Guide" transform="translate(-78.000000, -824.000000)" fill="#FF0000" fill-rule="nonzero">
            <g id="noun_Superhero_2227044" transform="translate(78.000000, 824.000000)">
                <path d="M8.7752,5.3984 C10.265927,5.3984 11.4744,4.189927 11.4744,2.6992 C11.4744,1.208473 10.265927,0 8.7752,0 C7.284473,0 6.076,1.208473 6.076,2.6992 C6.076,4.189927 7.284473,5.3984 8.7752,5.3984 Z" id="Path"></path>
                <path d="M5.1296,14.9744 C4.5221347,15.1992414 3.84187849,15.0978368 3.3264,14.7056 C2.9704567,14.4340467 2.6319234,14.1404018 2.3128,13.8264 L0,21.28 C0,21.28 1.1872,21.4144 2.9512,21.5768 L5.1296,14.9744 Z" id="Path"></path>
                <path d="M11.5808,14.756 C11.5636658,14.702461 11.5430896,14.6500852 11.5192,14.5992 C11.8832,12.5832 12.2864,10.5448 12.7232,8.5176 C13.4904,9.0048 13.9552,9.548 13.9944,10.024 C14.0504,10.6232 13.4736,11.4128 12.3704,12.264 C11.9573751,12.574753 11.7901247,13.1153032 11.9554808,13.6050117 C12.1208369,14.0947201 12.5815378,14.4232349 13.0984,14.42 C13.3616058,14.4204374 13.6175654,14.3338049 13.8264,14.1736 C15.6576,12.7736 16.52,11.312 16.3912,9.8224 C16.277822,8.85251654 15.8065353,7.95986756 15.0696,7.3192 C14.5243349,6.81831975 13.9117432,6.39610264 13.2496,6.0648 C13.1421706,6.01125747 13.0268326,5.97533251 12.908,5.9584 C12.7915408,5.91593533 12.6678377,5.89690409 12.544,5.9024 L5.0064,5.9024 C4.88036525,5.89868594 4.7548175,5.91961057 4.6368,5.964 C4.52524009,5.98153765 4.41737051,6.01749417 4.3176,6.0704 C3.65454007,6.39783892 3.04167785,6.81835669 2.4976,7.3192 C1.76274425,7.96078468 1.29351504,8.85331853 1.1816,9.8224 C1.0472,11.312 1.9096,12.7736 3.7408,14.1736 C4.26741739,14.5724842 5.01709087,14.4725277 5.4208,13.9496 C5.81843669,13.4215252 5.71594903,12.6716155 5.1912,12.2696 C4.0712,11.4296 3.5112,10.64 3.5672,10.0296 C3.6064,9.5592 4.0656,9.016 4.8272,8.5288 C5.2528,10.5224 5.6504,12.5272 6.0144,14.5096 C5.98677404,14.5659999 5.96246598,14.6239653 5.9416,14.6832 L2.6152,24.7632 C2.48613024,25.1530555 2.51751687,25.5782492 2.70243185,25.9449272 C2.88734683,26.3116052 3.21058597,26.5896183 3.6008,26.7176 C3.75766088,26.7708435 3.92235461,26.797346 4.088,26.796 C4.7511592,26.8008058 5.34456337,26.3849734 5.5664,25.76 L8.7528,16.072 L11.9672,25.816 C12.1758349,26.4522461 12.7704222,26.8817959 13.44,26.8800056 C13.6054237,26.8785765 13.7696808,26.8521443 13.9272,26.8016 C14.317414,26.6736183 14.6406532,26.3956052 14.8255681,26.0289272 C15.0104831,25.6622492 15.0418698,25.2370555 14.9128,24.8472 L11.5808,14.756 Z M10.08,11.4744 L8.7864,10.808 L7.5152,11.4744 L7.756,10.08 L6.72,9.0608 L8.1368,8.8536 L8.7752,7.5656 L9.408,8.8536 L10.8248,9.0608 L9.8112,10.08 L10.08,11.4744 Z" id="Shape"></path>
                <path d="M7.5432,21.9184 C8.35706667,21.9632 9.17466667,21.9968 9.996,22.0192 L8.7528,18.2504 L7.5432,21.9184 Z" id="Path"></path>
                <path d="M14.2408,14.7056 C13.9190076,14.9520021 13.5260711,15.0875652 13.1208,15.092 C12.8690456,15.0924438 12.6197026,15.0429559 12.3872,14.9464 L14.672,21.952 C15.7856476,21.9197803 16.8849957,21.692329 17.92,21.28 L15.4,13.6808 C15.0376857,14.0487134 14.6503617,14.3911303 14.2408,14.7056 L14.2408,14.7056 Z" id="Path"></path>
            </g>
        </g>
    </g>
</svg>
